img/gcn/dpad.svg

<?xml version="1.0" encoding="UTF-8"?>
<svg id="layer" xmlns="http://www.w3.org/2000/svg" version="1.1" width="225" height="66"
    viewBox="0 0 225 66">
    <defs>
        <style>
            .st0 {
            fill: #171717;
            }
        </style>
    </defs>
    <g id="Right">
        <path class="st0"
            d="M219.6,1h-35.1c-.9,0-1.8-.4-2.4-1l-12.6,12.6-9.5,9.5,9.5,9.5,12.5,12.7c.6-.6,1.5-1,2.4-1h35.1c3.1,0,5.6-2.5,5.6-5.6,0,0,0,0,0,0V6.7c.1-3-2.2-5.6-5.2-5.7,0,0-.2,0-.3,0Z" />
    </g>
    <g id="Up">
        <path class="st0"
            d="M43.3,40.8V5.6C43.3,2.5,40.8,0,37.7,0c0,0,0,0,0,0H6.7C3.6,0,1.1,2.4,1,5.5c0,0,0,0,0,0v35.1c0,.9-.4,1.8-1,2.4l12.6,12.6,9.5,9.5,9.5-9.5,12.6-12.6c-.6-.6-.9-1.4-.9-2.3Z" />
    </g>
    <g id="Down">
        <path class="st0"
            d="M78,9.5L68.4,0l-9.5,9.5-12.6,12.6c.6.6,1,1.5,1,2.4v35.1c0,3.1,2.5,5.6,5.6,5.6,0,0,0,0,0,0h31c3.1,0,5.6-2.5,5.6-5.6,0,0,0,0,0,0V24.6c0-.9.4-1.8,1-2.4l-12.5-12.7Z" />
    </g>
    <g id="Left">
        <path class="st0"
            d="M148.3,12.6l-12.5-12.6c-.6.6-1.5,1-2.4,1h-35.2c-3.1,0-5.6,2.5-5.6,5.6,0,0,0,0,0,0v31c0,3.1,2.5,5.6,5.6,5.6,0,0,0,0,0,0h35.1c.9,0,1.8.4,2.4,1l12.6-12.6,9.5-9.5-9.5-9.5Z" />
    </g>
</svg>

<svg id="Layer_1" data-name="Layer 1" xmlns="http://www.w3.org/2000/svg" width="225.1" height="65.3" viewBox="0 0 225.1 65.3">
  <defs>
    <style>
      .cls-1 {
        fill: #171717;
      }

      .cls-2, .cls-4 {
        fill: #fff;
      }

      .cls-2 {
        isolation: isolate;
      }

      .cls-2, .cls-3 {
        opacity: 0.08;
      }
    </style>
  </defs>
  <g id="Right">
    <path class="cls-1" d="M219.6,1H184.5a3.31,3.31,0,0,1-2.4-1L169.5,12.6,160,22.1l9.5,9.5L182,44.3a3.49,3.49,0,0,1,2.4-1h35.1a5.59,5.59,0,0,0,5.6-5.6V6.7A5.47,5.47,0,0,0,219.6,1Z"/>
    <path class="cls-2" d="M169.4,31.7a13.54,13.54,0,0,0,4-9.5,13.13,13.13,0,0,0-4-9.5l-9.5,9.5Z"/>
    <g>
      <g class="cls-3">
        <path class="cls-4" d="M194.4,32.4c-.3,0-.4-.1-.4-.2a1.49,1.49,0,0,1-.2-.9V13a1.49,1.49,0,0,1,.2-.9.52.52,0,0,1,.4-.2,4,4,0,0,1,1.3.4c3,1.5,16.1,8.2,16.2,8.3.6.2,1.6.9,1.7,1.5s-1.1,1.3-1.6,1.5c-.2.1-13.3,6.9-16.2,8.3a3.73,3.73,0,0,1-1.4.5Z"/>
        <path class="cls-4" d="M194.4,12.4a2.41,2.41,0,0,1,1.1.3c3,1.4,16.1,8.2,16.2,8.3h0c.7.3,1.3.8,1.3,1s-.6.8-1.3,1.1h0c-.1.1-13.2,6.9-16.2,8.3a2.17,2.17,0,0,1-1.1.3h-.1a4.33,4.33,0,0,1-.1-.5V12.8a1.42,1.42,0,0,1,.2-.4h0m0-1c-1.3,0-1.1,1.6-1.1,1.6V31.2s-.2,1.6,1.1,1.6a3.36,3.36,0,0,0,1.5-.4c3-1.5,16.2-8.3,16.2-8.3s1.9-.8,1.9-2-1.9-2-1.9-2-13.2-6.8-16.2-8.3a3.36,3.36,0,0,0-1.5-.4Z"/>
      </g>
      <g class="cls-3">
        <path class="cls-4" d="M194.4,12.1a3.14,3.14,0,0,1,1.2.4c3,1.4,16.1,8.2,16.2,8.3h0c.6.3,1.5.9,1.5,1.3s-.9,1.1-1.5,1.3h0c-.1.1-13.2,6.9-16.2,8.3a3.14,3.14,0,0,1-1.2.4.44.44,0,0,1-.3-.1.88.88,0,0,1-.1-.7h0V13h0a2,2,0,0,1,.1-.7c0-.1.1-.2.3-.2m0-.7c-1.3,0-1.1,1.6-1.1,1.6V31.2s-.2,1.6,1.1,1.6a3.36,3.36,0,0,0,1.5-.4c3-1.5,16.2-8.3,16.2-8.3s1.9-.8,1.9-2-1.9-2-1.9-2-13.2-6.8-16.2-8.3a3.36,3.36,0,0,0-1.5-.4Z"/>
      </g>
    </g>
  </g>
  <g id="Up">
    <path class="cls-1" d="M43.3,40.8V5.6A5.59,5.59,0,0,0,37.7,0H6.7A5.61,5.61,0,0,0,1,5.6V40.7a3.31,3.31,0,0,1-1,2.4L12.6,55.7l9.5,9.5,9.5-9.5L44.2,43.1A3,3,0,0,1,43.3,40.8Z"/>
    <path class="cls-2" d="M12.6,55.8l9.5,9.5,9.5-9.5a13.28,13.28,0,0,0-19,0Z"/>
    <g>
      <g class="cls-3">
        <path class="cls-4" d="M31.5,31.5H12.8a.91.91,0,0,1-.8-.3c-.2-.3-.1-.9.3-1.7,1.5-3,8.2-16.1,8.3-16.2.2-.6.9-1.6,1.5-1.7s1.3,1.1,1.5,1.6c.1.2,6.9,13.3,8.3,16.2.4.8.5,1.4.3,1.7S31.7,31.5,31.5,31.5Z"/>
        <path class="cls-4" d="M22.1,12.2c.2,0,.7.6,1,1.3h0c.1.1,6.9,13.2,8.3,16.2.4.9.3,1.2.4,1.2a1,1,0,0,1-.4.1H12.3s-.1-.3.3-1.2c1.4-3,8.2-16.1,8.3-16.2h0c.5-.8,1-1.4,1.2-1.4m0-1c-1.2,0-2,1.9-2,1.9s-6.8,13.2-8.3,16.2c-1.2,2.5.3,2.7.9,2.7H31.3c.6,0,2.1-.2.9-2.7-1.5-3-8.3-16.2-8.3-16.2s-.6-1.9-1.8-1.9Z"/>
      </g>
      <g class="cls-3">
        <path class="cls-4" d="M22.1,11.9c.4,0,1.1.9,1.3,1.5h0c.1.1,6.9,13.2,8.3,16.2.5,1.1.4,1.4.3,1.5a.85.85,0,0,1-.6.2H12.9a.85.85,0,0,1-.6-.2c0-.1-.2-.4.3-1.5,1.4-3,8.2-16.1,8.3-16.2h0c.2-.7.8-1.5,1.2-1.5m0-.7c-1.2,0-2,1.9-2,1.9s-6.8,13.2-8.3,16.2c-1.2,2.5.3,2.7.9,2.7H31.3c.6,0,2.1-.2.9-2.7-1.5-3-8.3-16.2-8.3-16.2s-.6-1.9-1.8-1.9Z"/>
      </g>
    </g>
  </g>
  <g id="Down">
    <path class="cls-1" d="M78,9.5,68.4,0,58.9,9.5,46.3,22.1a3.49,3.49,0,0,1,1,2.4V59.6a5.59,5.59,0,0,0,5.6,5.6h31a5.59,5.59,0,0,0,5.6-5.6v-35a3.31,3.31,0,0,1,1-2.4Z"/>
    <path class="cls-2" d="M58.9,9.5a13.54,13.54,0,0,0,9.5,4,13.13,13.13,0,0,0,9.5-4L68.4,0Z"/>
    <g>
      <g class="cls-3">
        <path class="cls-4" d="M68.4,53.7c-.6,0-1.3-1.1-1.5-1.6-.1-.2-6.9-13.3-8.3-16.2-.4-.8-.5-1.4-.3-1.7a.91.91,0,0,1,.8-.3H77.8a.91.91,0,0,1,.8.3c.2.3.1.9-.3,1.7-1.5,3-8.2,16.1-8.3,16.2C69.7,52.6,69,53.7,68.4,53.7Z"/>
        <path class="cls-4" d="M59.1,34.4H78.3s.1.3-.3,1.2c-1.4,3-8.2,16.1-8.3,16.2h0c-.3.6-.8,1.3-1,1.3s-.8-.6-1.1-1.3h0c-.1-.1-6.9-13.2-8.3-16.2-.4-.9-.3-1.2-.4-1.2h.2m18.7-1H59.2c-.6,0-2.1.2-.9,2.7,1.5,3,8.3,16.2,8.3,16.2s.8,1.9,2,1.9,2-1.9,2-1.9S77.2,39,78.7,36c1.2-2.4-.3-2.6-.9-2.6Z"/>
      </g>
      <g class="cls-3">
        <path class="cls-4" d="M59.1,34.1H77.5a.85.85,0,0,1,.6.2c0,.1.2.4-.3,1.5-1.4,3-8.2,16.1-8.3,16.2h0c-.3.6-.9,1.5-1.3,1.5s-1.1-.9-1.3-1.5h0c-.1-.1-6.9-13.2-8.3-16.2-.5-1.1-.4-1.4-.3-1.5a1.08,1.08,0,0,1,.8-.2m18.7-.7H59.2c-.6,0-2.1.2-.9,2.7,1.5,3,8.3,16.2,8.3,16.2s.8,1.9,2,1.9,2-1.9,2-1.9S77.2,39,78.7,36c1.2-2.4-.3-2.6-.9-2.6Z"/>
      </g>
    </g>
  </g>
  <g id="Left">
    <path class="cls-1" d="M148.3,12.6,135.8,0a3.49,3.49,0,0,1-2.4,1H98.2a5.59,5.59,0,0,0-5.6,5.6v31a5.59,5.59,0,0,0,5.6,5.6h35.1a3.31,3.31,0,0,1,2.4,1l12.6-12.6,9.5-9.5Z"/>
    <path class="cls-2" d="M148.3,12.6a13.54,13.54,0,0,0-4,9.5,13.13,13.13,0,0,0,4,9.5l9.5-9.5Z"/>
    <g>
      <g class="cls-3">
        <path class="cls-4" d="M123.4,32.4a4,4,0,0,1-1.3-.4c-3-1.5-16.1-8.2-16.2-8.3-.6-.2-1.7-.9-1.7-1.5s1.1-1.3,1.6-1.5c.2-.1,13.3-6.9,16.2-8.3a4,4,0,0,1,1.3-.4c.3,0,.4.1.4.2a1.49,1.49,0,0,1,.2.9V31.4a1.49,1.49,0,0,1-.2.9c.1,0,0,.1-.3.1Z"/>
        <path class="cls-4" d="M123.4,12.4h0a.44.44,0,0,1,.1.5V13h0V31.9h-.1a2.41,2.41,0,0,1-1.1-.3c-3-1.4-16.1-8.2-16.2-8.3h0c-.7-.3-1.3-.8-1.3-1s.6-.8,1.3-1.1h0c.1-.1,13.2-6.9,16.2-8.3a2.23,2.23,0,0,1,1.1-.5m0-1a3.36,3.36,0,0,0-1.5.4c-3,1.5-16.2,8.3-16.2,8.3s-1.9.8-1.9,2,1.9,2,1.9,2,13.2,6.8,16.2,8.3a4.12,4.12,0,0,0,1.5.4c1.3,0,1.1-1.6,1.1-1.6V13s.2-1.6-1.1-1.6Z"/>
      </g>
      <g class="cls-3">
        <path class="cls-4" d="M123.4,12.1a.44.44,0,0,1,.3.1.88.88,0,0,1,.1.7h0V31.1h0a2,2,0,0,1-.1.7.44.44,0,0,1-.3.1,3.14,3.14,0,0,1-1.2-.4c-3-1.4-16.1-8.2-16.2-8.3h0c-.6-.3-1.5-.9-1.5-1.3s.9-1.1,1.5-1.3h0c.1-.1,13.2-6.9,16.2-8.3.6-.1,1-.2,1.2-.2m0-.7a3.36,3.36,0,0,0-1.5.4c-3,1.5-16.2,8.3-16.2,8.3s-1.9.8-1.9,2,1.9,2,1.9,2,13.2,6.8,16.2,8.3a4.12,4.12,0,0,0,1.5.4c1.3,0,1.1-1.6,1.1-1.6V13s.2-1.6-1.1-1.6Z"/>
      </g>
    </g>
  </g>
</svg>
